X: 10
T: Missa Ave regina celorum &mdash; Kyrie
C: Gaspar van Weerbeke
%%abc-version 2.0
%%abcx-abcm2ps-target-version 5.9.1 (29 Sep 2008)
%%abc-creator hum2abc beta
%%abcx-conversion-date 2022/03/06 13:05:58
%%abc-copyright Copyright 2014, Pavanello, Agnese
%%abc-edited-by Mair-Gruber, Roland
%%humdrum-veritas 309143568
%%humdrum-veritas-data 822036018
%%linebreak <none>
%%barnumbers 0
L: 1/4
M: 3/2
N: Derived from Gas0101a-Missa_Ave_regina_celorum-Kyrie.krn
%%staves [1 2 3 4]
V: 1 clef=treble-8
V: 2 clef=treble-8
V: 3 clef=bass
V: 4 clef=bass
K: F
[V:1] F6 | 
[V:2] F6- | 
[V:3] z6 | 
[V:4] z6 | 
[V:1] A>Bc>ABc- | 
[V:2] F2E>CDE- | 
[V:3] z6 | 
[V:4] z6 | 
[V:1] c/d/e2fdc/B/ | 
[V:2] EC2D2E | 
[V:3] z6 | 
[V:4] z6 | 
[V:1] A2a4 | 
[V:2] F3E/D/C2 | 
[V:3] F,6 | 
[V:4] F,,4A,,B,, | 
[V:1] g>fdc2f/e/ | 
[V:2] c2z2cA | 
[V:3] E,>C,D,E,2D,- | 
[V:4] C,2B,,C,2D, | 
[V:1] d/c/c2=Bc2 | 
[V:2] BG2FG2 | 
[V:3] D,E,C,F,2E, | 
[V:4] B,,C,2D,C,2 | 
[V:1] AB>AG/F/E2 | 
[V:2] z2zDEG- | 
[V:3] F,2zF,G,2- | 
[V:4] D,D,>C,B,,/A,,<G,,A,,/ | 
[V:1] z2z2zF- | 
[V:2] G/F/E/D<ED/EF | 
[V:3] G,2A,4 | 
[V:4] B,,C,4F,,- | 
[V:1] F/G/A/B/cdef | 
[V:2] c>B A/G/FEz | 
[V:3] A,4A,2 | 
[V:4] F,,F,>E,D,C,D, | 
[V:1] gg>fe/d/e2 | 
[V:2] C2DEC2 | 
[V:3] G,B,>A,G,/F,/G,2 | 
[V:4] _E,>D,B,,C,>B,,C, | 
[V:1] f>ecBdc | 
[V:2] zF2G2A- | 
[V:3] F,2z2z2 | 
[V:4] D,>C,A,,B,,2A,, | 
[V:1] B2AGBc | 
[V:2] AGAB>AF | 
[V:3] z6 | 
[V:4] B,,>A,,F,,G,,2F,,- | 
[V:1] decf2e | 
[V:2] G2FAG2 | 
[V:3] z6 | 
[V:4] F,,E,,F,,2C,2 | 
[V:1] f2z2z2 | 
[V:2] FA2Bc3/A/ | 
[V:3] F,4E,3/C,/ | 
[V:4] D,2D,2C,2 | 
[V:1] fgefg2 | 
[V:2] BGcAG2 | 
[V:3] D,E,C,F,2E, | 
[V:4] z2z2C,2 | 
[V:1] a2af>ed | 
[V:2] F>ECD>EF | 
[V:3] F,6 | 
[V:4] F,,>G,,A,,B,,>C,D, | 
[V:1] cd>cB/A/B2 | 
[V:2] EDz2_E2 | 
[V:3] zF,G,4 | 
[V:4] A,,B,,>A,,G,,/F,,/_E,,2 | 
[V:1] A2z2c2 | 
[V:2] CF2D_E2 | 
[V:3] A,4G,A, | 
[V:4] F,,2F,,2z2 | 
[V:1] defde2 | 
[V:2] DCzB2A | 
[V:3] B,G,A,F,E,2 | 
[V:4] B,,C,A,,B,,C,2 | 
[V:1] dc2f2e | 
[V:2] Bc2AG2 | 
[V:3] F,>G,A,F,G,2 | 
[V:4] B,,A,,F,,2C,2 | 
[V:1] f4 ||  
[V:2] A4 & c4 ||  
[V:3] F,4 ||  
[V:4] F,,4 ||  
[V:1] [M:2/2]z4 | 
[V:2] [M:2/2]z4 | 
[V:3] [M:2/2]F,4- | 
[V:4] [M:2/2]F,,3G,, | 
[V:1] z4 | 
[V:2] z4 | 
[V:3] F,4 | 
[V:4] A,,2B,,2- | 
[V:1] z4 | 
[V:2] z4 | 
[V:3] G,4- | 
[V:4] B,,2C,2- | 
[V:1] z4 | 
[V:2] z4 | 
[V:3] G,4 | 
[V:4] C,B,,G,,2 | 
[V:1] c3d | 
[V:2] F3E | 
[V:3] A,4- | 
[V:4] F,,4 | 
[V:1] e2f2- | 
[V:2] C2D2 | 
[V:3] A,4 | 
[V:4] z4 | 
[V:1] f2g2- | 
[V:2] B,2z2 | 
[V:3] B,4- | 
[V:4] B,,4- | 
[V:1] gfd2 | 
[V:2] D3E | 
[V:3] B,4 | 
[V:4] B,,4 | 
[V:1] c4 | 
[V:2] F3E | 
[V:3] A,4 | 
[V:4] F,,4 | 
[V:1] z2e2 | 
[V:2] C2c2- | 
[V:3] G,4 | 
[V:4] C,4 | 
[V:1] f2a2- | 
[V:2] c2A2 | 
[V:3] A,4 | 
[V:4] F,,2F,2- | 
[V:1] aff2- | 
[V:2] F2A2 | 
[V:3] C4- | 
[V:4] F,4 | 
[V:1] f2e2 | 
[V:2] G4 | 
[V:3] C4- | 
[V:4] C,4 | 
[V:1] f2zf- | 
[V:2] F4 | 
[V:3] C4- | 
[V:4] z2F,,3/G,,/ | 
[V:1] fe/d/e2 | 
[V:2] z2G2 | 
[V:3] C4 | 
[V:4] A,,>B,,C,2 | 
[V:1] d2g2- | 
[V:2] F2G2- | 
[V:3] B,4- | 
[V:4] D,2_E,2- | 
[V:1] gf/e/d2- | 
[V:2] GAB3/A/ | 
[V:3] B,4 | 
[V:4] E,D,/C,<B,,C,/ | 
[V:1] d2c3/d/ | 
[V:2] F>GA3/B/ | 
[V:3] A,4 | 
[V:4] D,>E,F,2 | 
[V:1] e2fg- | 
[V:2] c2z2 | 
[V:3] G,4- | 
[V:4] C,2D,E,- | 
[V:1] g/f/e/d/e2 | 
[V:2] c4 | 
[V:3] G,4 | 
[V:4] E,/D,/C,/B,,/C,2 | 
[V:1] f2zc- | 
[V:2] A3G/F/ | 
[V:3] F,2A,2 | 
[V:4] D,2A,,3/B,,/ | 
[V:1] cBc2- | 
[V:2] EF2E | 
[V:3] G,F,G,2 | 
[V:4] C,D,C,2 | 
[V:1] c2d2 | 
[V:2] F4 | 
[V:3] F,4 | 
[V:4] F,,4 | 
[V:1] e4 | 
[V:2] G4 | 
[V:3] z4 | 
[V:4] E,,4 | 
[V:1] c4 | 
[V:2] F2A2- | 
[V:3] z4 | 
[V:4] F,,4 | 
[V:1] f2ed- | 
[V:2] A2G2 | 
[V:3] z4 | 
[V:4] z4 | 
[V:1] dc2=B | 
[V:2] FED2 | 
[V:3] z4 | 
[V:4] z4 | 
[V:1] c2d2- | 
[V:2] C2z2 | 
[V:3] F,4 | 
[V:4] F,,2B,,2- | 
[V:1] def2 | 
[V:2] z4 | 
[V:3] D,4 | 
[V:4] B,,4 | 
[V:1] z2g2- | 
[V:2] G3A | 
[V:3] E,4- | 
[V:4] C,3B,,/A,,/ | 
[V:1] g2c2- | 
[V:2] B2A2 | 
[V:3] E,2F,2 | 
[V:4] G,,2F,,2 | 
[V:1] c2=B2 | 
[V:2] G4 | 
[V:3] D,4 | 
[V:4] G,,4 | 
[V:1] c2A2 | 
[V:2] E2F/E/D/C/ | 
[V:3] C,3D,- | 
[V:4] A,,2F,,2 | 
[V:1] B2G3/A/ | 
[V:2] B,>A,C2 | 
[V:3] D,2E,2- | 
[V:4] zG,,C,3/B,,/ | 
[V:1] BA2G/F/ | 
[V:2] zc2c- | 
[V:3] E,F,2A, | 
[V:4] G,,F,,F,2 | 
[V:1] EF2E | 
[V:2] cBc2 | 
[V:3] G,F,G,2 | 
[V:4] C,D,C,2 | 
[V:1] F2z2 | 
[V:2] A>Bcd- | 
[V:3] F,4 | 
[V:4] F,,4 | 
[V:1] z4 | 
[V:2] d/c/B/A/B2 | 
[V:3] z4 | 
[V:4] G,,4 | 
[V:1] c>def- | 
[V:2] A2z2 | 
[V:3] z4 | 
[V:4] A,,4 | 
[V:1] f/e/d/c/d2 | 
[V:2] z4 | 
[V:3] z4 | 
[V:4] B,,4 | 
[V:1] c>Acd- | 
[V:2] A>G F/E/D | 
[V:3] F,4 | 
[V:4] A,,>F,,A,,B,,- | 
[V:1] d/c<ef/g | 
[V:2] FEC2 | 
[V:3] G,4 | 
[V:4] B,,/G,,<C,D,/E, | 
[V:1] fe/d/c2 | 
[V:2] z2FE | 
[V:3] A,4 | 
[V:4] D,F,>E,C, | 
[V:1] d4 | 
[V:2] DFB,2 | 
[V:3] B,4 | 
[V:4] B,,D,2E, | 
[V:1] c4 | 
[V:2] z4 | 
[V:3] A,4- | 
[V:4] F,4 | 
[V:1] z2A2 | 
[V:2] F>EC2 | 
[V:3] A,4 | 
[V:4] z2F,,2 | 
[V:1] B3G | 
[V:2] B,_E3 | 
[V:3] G,4 | 
[V:4] G,,_E,,E,,3/D,,/ | 
[V:1] Ac>BA/G/ | 
[V:2] C2c2 | 
[V:3] F,2E,2 | 
[V:4] F,,2C,2 | 
[V:1] Ffec | 
[V:2] zA>Bc | 
[V:3] F,2A,2 | 
[V:4] D,2A,,2 | 
[V:1] d2e2 | 
[V:2] B/A/G/F<ED/ | 
[V:3] G,4 | 
[V:4] B,,2C,2 | 
[V:1] cd2c/B/ | 
[V:2] F2D2 | 
[V:3] !fermata!F,4- [|] 
[V:4] F,,B,,>A,,B,, | 
[V:1] !fermata!A4 ||  
[V:2] !fermata!C4 ||  
[V:3] F,4 ||  
[V:4] !fermata!F,,4 ||  
[V:1] [M:3/2]c4d2 | 
[V:2] [M:3/2]F2A2B2 | 
[V:3] [M:3/2]F,6 | 
[V:4] [M:3/2]F,,4B,,2 | 
[V:1] c2df2e/d/ | 
[V:2] c>B A/G<FE/F | 
[V:3] A,4B,2 | 
[V:4] A,,2D,4 | 
[V:1] e2fg>f_e/d/ | 
[V:2] G6 | 
[V:3] C4B,2 | 
[V:4] C,4_E,2 | 
[V:1] cf2ee3/d/ | 
[V:2] c4zc | 
[V:3] A,2G,4 | 
[V:4] F,2C,4 | 
[V:1] f2zcd3/c/ | 
[V:2] A>B c/B/A/G/FB | 
[V:3] F,6- | 
[V:4] D,>C,A,,F,,B,,3/A,,/ | 
[V:1] A>FB3A/G/ | 
[V:2] cAG2z2 | 
[V:3] F,2G,4 | 
[V:4] F,,F,2E,E,3/D,/ | 
[V:1] Ff>edcd- | 
[V:2] z6 | 
[V:3] A,2F,2F,2 | 
[V:4] F,2F,,>G,,A,,B,,- | 
[V:1] d/c/B/A/Gc2=B | 
[V:2] z2G4 | 
[V:3] D,2E,C,D,2 | 
[V:4] B,,/A,,/B,,C,2G,,2 | 
[V:1] c2z2f2- | 
[V:2] G2<A2FB- | 
[V:3] C,4D,2- | 
[V:4] zC,A,,F,,B,,2- | 
[V:1] fg>fe/d/c2 | 
[V:2] B2Gc3 | 
[V:3] D,2E,4 | 
[V:4] B,,G,,2<C,2A,, | 
[V:1] zdcf2e | 
[V:2] AF2E/D/Cc | 
[V:3] F,2A,B,G,2 | 
[V:4] D,>E,F,B,,C,2 | 
[V:1] f2zfg2 | 
[V:2] ABcd2c- | 
[V:3] F,4z2 | 
[V:4] D,>C,A,,B,,2C, | 
[V:1] a2b2af | 
[V:2] c2BGcA | 
[V:3] F,2G,2A,2 | 
[V:4] A,,2G,,2F,,F,- | 
[V:1] g2c2zB | 
[V:2] G2F2B2 | 
[V:3] B,2A,F,G,2 | 
[V:4] F,E,F,2z2 | 
[V:1] cd>cBA2 | 
[V:2] AFG2FA- | 
[V:3] F,2z2F,2- | 
[V:4] z4F,,3/G,,/ | 
[V:1] z6 | 
[V:2] AGE2F2 | 
[V:3] F,2<G,2A,2- | 
[V:4] A,,B,,C,2F,,F,- | 
[V:1] z2z2d3/B/ | 
[V:2] z2z2B2 | 
[V:3] A,B,2A,2G, | 
[V:4] F,D,>C,A,,B,,2 | 
[V:1] c>defea- | 
[V:2] Ac2FGA- | 
[V:3] A,4C2- | 
[V:4] F,,2_C,D,C,F,- | 
[V:1] ag2f2e | 
[V:2] ABGc3 | 
[V:3] CB,2A,G,2 | 
[V:4] F,G,E,F,C,2 | 
[V:1] f4d2 | 
[V:2] A2Bd>cB | 
[V:3] F,4G,2 | 
[V:4] D,2B,,4 | 
[V:1] c4z2 | 
[V:2] A4c2- | 
[V:3] A,2z2A,2 | 
[V:4] F,,6 | 
[V:1] z2z2d2 | 
[V:2] cBAFG/F/E/D/ | 
[V:3] G,2A,2B,2 | 
[V:4] z6 | 
[V:1] efg2cd- | 
[V:2] CF2EF2 | 
[V:3] CA,G,2F,2 | 
[V:4] z2z2F,,2 | 
[V:1] d/c/BAd2c- | 
[V:2] D>EF2DG- | 
[V:3] G,2A,F,2E, | 
[V:4] B,,G,,F,,B,,2C, | 
[V:1] c=Bc2de | 
[V:2] G2cAB2 | 
[V:3] D,2C,F,2G, | 
[V:4] G,,2A,,F,,B,,G,, | 
[V:1] fg2f2e | 
[V:2] AG2c3 | 
[V:3] A,B,2A,G,2 | 
[V:4] F,,_E,,2F,,C,2 | 
[V:1] f4 |]  
[V:2] c4 & A4 |]  
[V:3] F,4 |]  
[V:4] F,,4 |]  


